!!!COM: Haydn, Franz Joseph
!!!OPR: Symphony in B-flat Major
!!!OTL: Affettuoso 
!!!OMV: 3
!!!SCT: H I:85
!!!SCA: Thematisch-bibliographisches Werkevererzeichnis (A. van Hoboken)
!!!YOR: RISM H 3039, Choron Edition
!!!EED: Frances Bennion
!!!ENC: Frances Bennion
!!!CDT: 1732/3/31/-1809/5/31/
!!!OCY: Österreich
!!!YEC: Copyright (c) 1994, 2000 Center for Computer Assisted Research in the Humanities
!!!YEM: Rights to all derivative editions reserved.
!!!YEM: Refer to licensing agreement for further details.
!!!YEN: United States of America
**kern	**kern	**kern	**kern	**kern	**kern	**kern	**kern	**kern	**kern	**kern
*k[]	*k[b-e-]	*k[b-e-]	*k[]	*k[b-e-]	*k[b-e-]	*k[b-e-]	*k[b-e-]	*k[b-e-]	*k[b-e-]	*k[b-e-]
*C:	*C:	*C:	*C:	*C:	*C:	*C:	*C:	*C:	*C:	*C:
*clefF	*clefC3	*clefF4	*clefF	*clefF	*clefF	*clefF	*clefF4	*clefF4	*clefF	*clefF
*M3/4	*M3/4	*M3/4	*M3/4	*M3/4	*M3/4	*M3/4	*M3/4	*M3/4	*M3/4	*M3/4
*tb16	*tb16	*tb16	*tb16	*tb16	*tb16	*tb16	*tb16	*tb16	*tb16	*tb16
=0-	=0-	=0-	=0-	=0-	=0-	=0-	=0-	=0-	=0-	=0-
2r	2r	2r	2r	2r	2r	2r	2r	2r	2r	2r
4r	4B-	4r	4r	4b-	4r	4b-	4r	4r	4b-	4b-
=1	=1	=1	=1	=1	=1	=1	=1	=1	=1	=1
4cc	4B-	4BB-	4e	4b-	4b-	4b-	4B-	4B-	4b-	4b-
4r	4d	4r	4r	4dd	4r	4dd	4r	4r	4dd	4dd
4cc	4f	4B-	4e	4ff	4f	4ff	4d	4d	4ff	4ff
=2	=2	=2	=2	=2	=2	=2	=2	=2	=2	=2
2dd	2f	4A	2g	2ff	[2.f	2ff	4c	4c	2ff	2ff
.	.	4F	.	.	.	.	4A	4A	.	.
4cc	16a	4d	4e	16aa	.	16aa	4d	4d	16aa	16aa
.	8.b-	.	.	8.bb-	.	8.bb-	.	.	8.bb-	8.bb-
=3	=3	=3	=3	=3	=3	=3	=3	=3	=3	=3
2dd	2f	4A	2g	2ff	2.f_	2ff	4c	4c	2ff	2ff
.	.	4F	.	.	.	.	4A	4A	.	.
4cc	16a	4d	4e	16aa	.	16aa	4d	4d	16aa	16aa
.	8.b-	.	.	8.bb-	.	8.bb-	.	.	8.bb-	8.bb-
=4	=4	=4	=4	=4	=4	=4	=4	=4	=4	=4
2dd	2f	4A	2g	2ff	2f]	2ff	4c	4c	2ff	2ff
.	.	4F	.	.	.	.	4A	4A	.	.
4cc	4b-	4B-	4c	16ff#	16f#	16ff#	4B-	4B-	16ff#	16ff#
.	.	.	.	8.gg	8.g	8.gg	.	.	8.gg	8.gg
=5	=5	=5	=5	=5	=5	=5	=5	=5	=5	=5
2.cc	2.b-	4E	2.c	[2.cc	2g	[2.cc	2.B-	2.B-	[2.cc	[2.cc
.	.	4G	.	.	.	.	.	.	.	.
.	.	4B-	.	.	4e	.	.	.	.	.
=6	=6	=6	=6	=6	=6	=6	=6	=6	=6	=6
2dd	2a	4A	2g	4cc]	4f	4cc]	2A	2A	4cc]	4cc]
.	.	4F	.	4ee-	4cc	4eee-	.	.	4ee-	4ee-
4ee	4b-	4G	4cc	4dd	4b-	4ddd	4B-	4B-	4dd	4dd
=7	=7	=7	=7	=7	=7	=7	=7	=7	=7	=7
4ff	4e-	4E-	4r	4ee-	4cc	4ccc	4e-	4e-	4cc	4cc
4ee	4d	4F	4cc	4dd	4b-	4bb-	4d	4d	4b-	4b-
4dd	4c	4F	4g	4cc	4a	4aa	4c	4c	4a	4a
=8	=8	=8	=8	=8	=8	=8	=8	=8	=8	=8
4cc	4B-	4BB-	4e	4b-	4b-	4bb-	4B-	4B-	4b-	4b-
4r	4r	4B-	4r	4r	4r	4r	4r	4r	4r	4r
4r	4r	4r	4r	4r	4r	4r	4r	4r	4B-	4r
=9	=9	=9	=9	=9	=9	=9	=9	=9	=9	=9
2.r	4D	[2.BB-	2.r	2.r	2.r	2.r	2.r	2.r	4B-	2B-
.	4F	.	.	.	.	.	.	.	4d	.
.	4A-	.	.	.	.	.	.	.	4f	4A-
=10	=10	=10	=10	=10	=10	=10	=10	=10	=10	=10
2.r	2G	2.BB-]	2.r	2.r	2.r	2.r	2.r	2.r	4f	2G
.	.	.	.	.	.	.	.	.	16d	.
.	.	.	.	.	.	.	.	.	8.e-	.
.	4E-	.	.	.	.	.	.	.	16a	16f#
.	.	.	.	.	.	.	.	.	8.b-	8.g
=11	=11	=11	=11	=11	=11	=11	=11	=11	=11	=11
2.r	2.F	2.BB-	2.r	2.r	2.r	2.r	2.r	2.r	4r	2.d
.	.	.	.	.	.	.	.	.	16e	.
.	.	.	.	.	.	.	.	.	8.f	.
.	.	.	.	.	.	.	.	.	16g	.
.	.	.	.	.	.	.	.	.	[8.a-	.
=12	=12	=12	=12	=12	=12	=12	=12	=12	=12	=12
2.r	4E-	4E-	2.r	2.r	2.r	2.r	2.r	2.r	4a-]	4e-
.	2r	2r	.	.	.	.	.	.	4f#	2r
.	.	.	.	.	.	.	.	.	[4g	.
=13	=13	=13	=13	=13	=13	=13	=13	=13	=13	=13
2.r	4e-	4EE-	2.r	2.r	2.r	2.r	2.r	2.r	4g]	4r
.	2r	2r	.	.	.	.	.	.	16b	16b
.	.	.	.	.	.	.	.	.	16cc	16cc
.	.	.	.	.	.	.	.	.	8r	8r
.	.	.	.	.	.	.	.	.	16dd	16dd
.	.	.	.	.	.	.	.	.	16ee-	16ee-
.	.	.	.	.	.	.	.	.	8r	8r
=14	=14	=14	=14	=14	=14	=14	=14	=14	=14	=14
2.r	2.r	2.r	2.r	2.r	2.r	2.r	2.r	2.r	16ff#	16ff#
.	.	.	.	.	.	.	.	.	16gg	16gg
.	.	.	.	.	.	.	.	.	8r	8r
.	.	.	.	.	.	.	.	.	16ff	16ff
.	.	.	.	.	.	.	.	.	16ee-	16ee-
.	.	.	.	.	.	.	.	.	8r	8r
.	.	.	.	.	.	.	.	.	16dd	16dd
.	.	.	.	.	.	.	.	.	16cc	16cc
.	.	.	.	.	.	.	.	.	8r	8r
=15	=15	=15	=15	=15	=15	=15	=15	=15	=15	=15
2.r	4F	4FF	2.r	2.r	2.r	2.r	2.r	2.r	2.b-	2.b-
.	4c	4C	.	.	.	.	.	.	.	.
.	4e	4E	.	.	.	.	.	.	.	.
=16	=16	=16	=16	=16	=16	=16	=16	=16	=16	=16
2.r	8f	8F	2.r	2r	2.r	2r	2.r	2.r	4a	4a
.	8g	8G	.	.	.	.	.	.	.	.
.	8f	8F	.	.	.	.	.	.	4r	4r
.	8e-	8E-	.	.	.	.	.	.	.	.
.	8d	8D	.	4b-	.	4b-	.	.	4b-	4b-
.	8c	8C	.	.	.	.	.	.	.	.
=17	=17	=17	=17	=17	=17	=17	=17	=17	=17	=17
4cc	4B-	4BB-	4e	4b-	4b-	4b-	4B-	4B-	4b-	4b-
4r	4d	4r	4r	4dd	4r	4dd	4r	4r	4dd	4dd
4ee	4f	4B-	4cc	4ff	4f	4ff	4d	4d	4ff	4ff
=18	=18	=18	=18	=18	=18	=18	=18	=18	=18	=18
2dd	2f	4A	2g	2ff	[2.f	2ff	4c	4c	2ff	2ff
.	.	4F	.	.	.	.	4A	4A	.	.
4ee	4b-	4d	4cc	16aa	.	16aa	4d	4d	16aa	16aa
.	.	.	.	8.bb-	.	8.bb-	.	.	8.bb-	8.bb-
=19	=19	=19	=19	=19	=19	=19	=19	=19	=19	=19
2dd	4cc	4A	2g	2ff	2.f_	2ff	4c	4c	2ff	2ff
.	4a	4F	.	.	.	.	4A	4A	.	.
4ee	4dd	4d	4cc	16aa	.	16aa	4d	4d	16aa	16aa
.	.	.	.	8.bb-	.	8.bb-	.	.	8.bb-	8.bb-
=20	=20	=20	=20	=20	=20	=20	=20	=20	=20	=20
2dd	4cc	4A	2f	2ff	2f]	2ff	4c	4c	2ff	2ff
.	4a	4F	.	.	.	.	4A	4A	.	.
4cc	4b-	4B-	4c	16ff#	16f#	16ff#	4B-	4B-	16ff#	16ff#
.	.	.	.	8.gg	8.g	8.gg	.	.	8.gg	8.gg
=21	=21	=21	=21	=21	=21	=21	=21	=21	=21	=21
2.cc	2.b-	4E	2.c	[2.cc	2b-	2.cc	2.B-	2.B-	[2.cc	[2.cc
.	.	4G	.	.	.	.	.	.	.	.
.	.	4B-	.	.	4e	.	.	.	.	.
=22	=22	=22	=22	=22	=22	=22	=22	=22	=22	=22
2dd	2a	4A	2g	4cc]	4f	4cc	2A	2A	4cc]	4cc]
.	.	4F	.	4ee-	4cc	4eee-	.	.	4ee-	4ee-
4ee	4b-	4G	4cc	4dd	4b-	4ddd	4B-	4B-	4dd	4dd
=23	=23	=23	=23	=23	=23	=23	=23	=23	=23	=23
4ff	4e-	4E-	4dd	4ee-	4cc	4ccc	4e-	4e-	4cc	4cc
4ee	4d	4F	4cc	4dd	4b-	4bb-	4d	4d	4b-	4b-
4dd	4c	4F	4g	4cc	4a	4aa	4c	4c	4a	4a
=24	=24	=24	=24	=24	=24	=24	=24	=24	=24	=24
4cc	4B-	4BB-	4e	4b-	4b-	4bb-	4B-	4B-	4b-	4b-
2r	2r	2r	2r	2r	2r	2r	2r	2r	16aa	2r
.	.	.	.	.	.	.	.	.	16bb-	.
.	.	.	.	.	.	.	.	.	8r	.
.	.	.	.	.	.	.	.	.	16ccc#	.
.	.	.	.	.	.	.	.	.	16ddd	.
.	.	.	.	.	.	.	.	.	8r	.
=25	=25	=25	=25	=25	=25	=25	=25	=25	=25	=25
2.r	2.r	2.r	2.r	2.r	2.r	2.r	2.r	2.r	16aa	2.r
.	.	.	.	.	.	.	.	.	16bb-	.
.	.	.	.	.	.	.	.	.	8r	.
.	.	.	.	.	.	.	.	.	16ff#	.
.	.	.	.	.	.	.	.	.	16gg	.
.	.	.	.	.	.	.	.	.	8r	.
.	.	.	.	.	.	.	.	.	16dd	.
.	.	.	.	.	.	.	.	.	16ee-	.
.	.	.	.	.	.	.	.	.	8r	.
=26	=26	=26	=26	=26	=26	=26	=26	=26	=26	=26
2.r	2.g	4E	2.r	2.r	2.r	2.r	2.r	2.r	[2.cc	2b-
.	.	4G	.	.	.	.	.	.	.	.
.	.	4B-	.	.	.	.	.	.	.	4e
=27	=27	=27	=27	=27	=27	=27	=27	=27	=27	=27
2.r	2.f	4A	2.r	2.r	2.r	2.r	2.r	2.r	4cc]	4f
.	.	4F	.	.	.	.	.	.	4ee-	4cc
.	.	4B-	.	.	.	.	.	.	4dd	4b-
=28	=28	=28	=28	=28	=28	=28	=28	=28	=28	=28
4r	4e-	4E-	4r	4r	4r	4r	4r	4r	4cc	2a
4dd	4cc	4e-	4g	4gg	4a	4gg	4A	4A	4gg	.
4ee	4b-	4d	4cc	4ff	4b-	4ff	4B-	4B-	4ff	4b-
=29	=29	=29	=29	=29	=29	=29	=29	=29	=29	=29
4ff	4e-	4e-	4dd	4ee-	4cc	4ee-	4E-	4E-	4ee-	4cc
4ee	4f	4f	4cc	4dd	4b-	4dd	4F	4F	4dd	4b-
4dd	4f	4F	4g	4cc	4a	4cc	4F	4F	4cc	4a
=30	=30	=30	=30	=30	=30	=30	=30	=30	=30	=30
4cc	4B-	4B-	4e	4b-	4b-	4b-	4BB-	4BB-	4b-	4b-
2r	2r	2r	2r	4dd	2r	2r	2r	2r	2r	2r
.	.	.	.	4ff	.	.	.	.	.	.
=31	=31	=31	=31	=31	=31	=31	=31	=31	=31	=31
2.r	4f	4D	2.r	2.ff	2.r	2.r	2.r	2.r	4r	4b-
.	2r	2r	.	.	.	.	.	.	16aa	2r
.	.	.	.	.	.	.	.	.	8.bb-	.
.	.	.	.	.	.	.	.	.	4ff	.
=32	=32	=32	=32	=32	=32	=32	=32	=32	=32	=32
2.r	4e-	4E-	2.r	2.gg	2.r	2.r	2.r	2.r	4r	4b-
.	2r	2r	.	.	.	.	.	.	16ff#	2r
.	.	.	.	.	.	.	.	.	8.gg	.
.	.	.	.	.	.	.	.	.	4cc	.
=33	=33	=33	=33	=33	=33	=33	=33	=33	=33	=33
2.r	4f	4F	2.r	4ee-	2.r	2.r	2.r	2.r	4r	4a
.	2r	2r	.	4cc	.	.	.	.	4ee-	2r
.	.	.	.	8b-	.	.	.	.	8dd	.
.	.	.	.	8a	.	.	.	.	8cc	.
=34	=34	=34	=34	=34	=34	=34	=34	=34	=34	=34
4c	4B-	4BB-	4c	4b-	2.r	4b-	4BB-	4BB-	4b-	4b-
4e	2r	2r	4e	2r	.	4dd	4D	4D	2r	2r
4g	.	.	4g	.	.	4ff	4F	4F	.	.
=35	=35	=35	=35	=35	=35	=35	=35	=35	=35	=35
2.g	4r	4r	2.g	4r	4r	4ff	4F	4F	4r	4r
.	4f	4F	.	8ee-	8ee-	8ee-	2r	2r	8ee-	8cc
.	.	.	.	8cc	8cc	8cc	.	.	8cc	8a
.	4f	4F	.	8ee-	8ee-	8ee-	.	.	8ee-	8cc
.	.	.	.	8cc	8cc	8cc	.	.	8cc	8a
=36	=36	=36	=36	=36	=36	=36	=36	=36	=36	=36
4c	4B-	4BB-	4c	4b-	4b-	4b-	4BB-	4BB-	4b-	4b-
4e	2r	2r	4e	4dd	4dd	4dd	4D	4D	2r	2r
4g	.	.	4g	4ff	4ff	4ff	4F	4F	.	.
=37	=37	=37	=37	=37	=37	=37	=37	=37	=37	=37
2.g	4r	4r	2.g	4ff	4ff	4ff	2.F	2.F	4r	4r
.	4f	4F	.	8ccc	8ee-	8ee-	.	.	8ccc	8ee-
.	.	.	.	8aa	8cc	8cc	.	.	8aa	8cc
.	4f	4F	.	8ccc	8ee-	8ee-	.	.	8ccc	8ee-
.	.	.	.	8aa	8cc	8cc	.	.	8aa	8cc
=38	=38	=38	=38	=38	=38	=38	=38	=38	=38	=38
4cc	4B-	4BB-	4e	4bb-	4b-	4b-	4BB-	4BB-	4bb-	4b-
4r	4r	4r	4r	4r	4r	4r	4r	4r	4r	4r
4r	4r	4r	4r	4r	4r	4r	8d	4r	8dd	4r
.	.	.	.	.	.	.	8B-	.	8b-	.
=39	=39	=39	=39	=39	=39	=39	=39	=39	=39	=39
2.r	4d 4B-	4BB-	2.r	2.r	2.r	2.r	8F	2.r	8f	4r
.	.	.	.	.	.	.	8B-	.	8b-	.
.	2r	2r	.	.	.	.	8d	.	8dd	4B- 4d
.	.	.	.	.	.	.	8B-	.	8b-	.
.	.	.	.	.	.	.	8e-	.	8ee-	4c 4e-
.	.	.	.	.	.	.	8c	.	8cc	.
=40	=40	=40	=40	=40	=40	=40	=40	=40	=40	=40
2.r	4B- 4d	4BB-	2.r	2.r	2.r	2.r	4f	2.r	4ff	4r
.	2r	2r	.	.	.	.	4f	.	4ff	4f 4d
.	.	.	.	.	.	.	4f	.	4ff	4f 4d
=41	=41	=41	=41	=41	=41	=41	=41	=41	=41	=41
2.r	4e- 4c	4F	2.r	2.r	2.r	2.r	4e-	2.r	4ee-	4r
.	2r	2r	.	.	.	.	8e-	.	8ee-	4e- 4c
.	.	.	.	.	.	.	8d	.	8dd	.
.	.	.	.	.	.	.	8e-	.	8ee-	4e- 4c
.	.	.	.	.	.	.	8c	.	8cc	.
=42	=42	=42	=42	=42	=42	=42	=42	=42	=42	=42
2.r	4d 4B-	4BB-	2.r	2.r	2.r	2.r	4d	2.r	4dd	4r
.	2r	2r	.	.	.	.	4r	.	4r	4B- 4d
.	.	.	.	.	.	.	8d	.	8dd	4B- 4d
.	.	.	.	.	.	.	8B-	.	8b-	.
=43	=43	=43	=43	=43	=43	=43	=43	=43	=43	=43
2.r	4d 4B-	4BB-	2.r	2.r	2.r	2.r	8F	2.r	8f	4r
.	.	.	.	.	.	.	8B-	.	8b-	.
.	2r	2r	.	.	.	.	8d	.	8dd	4d 4B-
.	.	.	.	.	.	.	8B-	.	8b-	.
.	.	.	.	.	.	.	8e-	.	8ee-	4e- 4c
.	.	.	.	.	.	.	8c	.	8cc	.
=44	=44	=44	=44	=44	=44	=44	=44	=44	=44	=44
2.r	4B- 4d	4BB-	2.r	2.r	2.r	2.r	4f	2.r	4ff	4r
.	2r	2r	.	.	.	.	4f	.	4ff	4f 4d
.	.	.	.	.	.	.	4f	.	4ff	4d 4f
=45	=45	=45	=45	=45	=45	=45	=45	=45	=45	=45
2.r	4e- 4c	4F	2.r	2.r	2.r	2.r	4e-	2.r	4ee-	4r
.	2r	2r	.	.	.	.	8e-	.	8ee-	4c 4e-
.	.	.	.	.	.	.	8d	.	8dd	.
.	.	.	.	.	.	.	8e-	.	8ee-	4e- 4c
.	.	.	.	.	.	.	8c	.	8cc	.
=46	=46	=46	=46	=46	=46	=46	=46	=46	=46	=46
2r	4B- 4d	4BB-	2r	2r	2r	2r	4B-	2r	4b-	4d 4B-
.	4r	4r	.	.	.	.	4r	.	4r	4r
4r	4r	4r	4r	4r	4r	4r	4r	4r	8ee-	4r
.	.	.	.	.	.	.	.	.	8b-	.
=47	=47	=47	=47	=47	=47	=47	=47	=47	=47	=47
2.r	2.g	4E-	2.r	2.gg	2.b-	[2.gg	2.E-	2.E-	8g	2.b- 2.g
.	.	.	.	.	.	.	.	.	8b-	.
.	.	4E-	.	.	.	.	.	.	8ee-	.
.	.	.	.	.	.	.	.	.	8b-	.
.	.	4E-	.	.	.	.	.	.	4gg	.
=48	=48	=48	=48	=48	=48	=48	=48	=48	=48	=48
2.r	2.g	4D	2.r	2.ff	2.b	2.gg]	2.D	2.D	8f	2.b- 2.f
.	.	.	.	.	.	.	.	.	8b	.
.	.	4D	.	.	.	.	.	.	8dd	.
.	.	.	.	.	.	.	.	.	8b	.
.	.	4D	.	.	.	.	.	.	4ff	.
=49	=49	=49	=49	=49	=49	=49	=49	=49	=49	=49
2.r	2.g	4C	2.r	2.ee-	2.cc	2.gg	2.C	2.C	8e-	2.e- 2.cc
.	.	.	.	.	.	.	.	.	8g	.
.	.	4C	.	.	.	.	.	.	8cc	.
.	.	.	.	.	.	.	.	.	8g	.
.	.	4C	.	.	.	.	.	.	4ee-	.
=50	=50	=50	=50	=50	=50	=50	=50	=50	=50	=50
2.r	2.f	4AA	2.r	2.ee-	2.cc	2.ff	2.AA	2.AA	8f	2.e- 2.cc
.	.	.	.	.	.	.	.	.	8a	.
.	.	4AA	.	.	.	.	.	.	8cc	.
.	.	.	.	.	.	.	.	.	8a	.
.	.	4AA	.	.	.	.	.	.	8ee-	.
.	.	.	.	.	.	.	.	.	8cc	.
=51	=51	=51	=51	=51	=51	=51	=51	=51	=51	=51
2.r	4f	4BB-	2.r	2dd	2f	2ff	2BB-	2BB-	8dd	4b-
.	.	.	.	.	.	.	.	.	8b-	.
.	4B-	4BB-	.	.	.	.	.	.	8ff	4dd
.	.	.	.	.	.	.	.	.	8dd	.
.	4c	4GG	.	4ee	4b-	4ee	4GG	4GG	8bb-	4e
.	.	.	.	.	.	.	.	.	8ee	.
=52	=52	=52	=52	=52	=52	=52	=52	=52	=52	=52
2.r	4F	4FF	2.r	4ff	4a	4ff	4FF	4FF	4ff	4f
.	2r	2r	.	2r	2r	2r	2r	2r	8ff	2r
.	.	.	.	.	.	.	.	.	8ee	.
.	.	.	.	.	.	.	.	.	8gg	.
.	.	.	.	.	.	.	.	.	8ee	.
=53	=53	=53	=53	=53	=53	=53	=53	=53	=53	=53
2.r	4F	4FF	2.r	2.r	2.r	2.r	2.r	2.r	4ff	4f 4A
.	2r	2r	.	.	.	.	.	.	8ff	2r
.	.	.	.	.	.	.	.	.	8ee	.
.	.	.	.	.	.	.	.	.	8gg	.
.	.	.	.	.	.	.	.	.	8ee	.
=54	=54	=54	=54	=54	=54	=54	=54	=54	=54	=54
[2.g	4F	4F	[2.G	2.r	4ff	2.r	2.r	2.r	4ff	4A 4f
.	2r	2r	.	.	8ff	.	.	.	2r	2r
.	.	.	.	.	8ee	.	.	.	.	.
.	.	.	.	.	8gg	.	.	.	.	.
.	.	.	.	.	8ee	.	.	.	.	.
=55	=55	=55	=55	=55	=55	=55	=55	=55	=55	=55
2.g_	2.r	2.r	2.G_	2.r	4ff	2.r	2.r	2.r	2.r	2.r
.	.	.	.	.	8ff	.	.	.	.	.
.	.	.	.	.	8ee	.	.	.	.	.
.	.	.	.	.	8gg	.	.	.	.	.
.	.	.	.	.	8ee	.	.	.	.	.
=56	=56	=56	=56	=56	=56	=56	=56	=56	=56	=56
2.g_	4c	4F	2.G_	2.r	4ff	2.r	2.r	2.r	4f	4A
.	2r	2r	.	.	4ff	.	.	.	2r	2r
.	.	.	.	.	4ff	.	.	.	.	.
=57	=57	=57	=57	=57	=57	=57	=57	=57	=57	=57
2.g_	2.r	2.r	2.G_	2.r	4ff	2.r	2.r	2.r	2.r	2.r
.	.	.	.	.	4ff	.	.	.	.	.
.	.	.	.	.	4ff	.	.	.	.	.
=58	=58	=58	=58	=58	=58	=58	=58	=58	=58	=58
2.g_	4e-	4F	2.G_	4gg	[2.ee-	2.r	2.r	2.r	4g	4B-
.	2r	2r	.	8gg	.	.	.	.	2r	2r
.	.	.	.	8ff#	.	.	.	.	.	.
.	.	.	.	8aa	.	.	.	.	.	.
.	.	.	.	8ff#	.	.	.	.	.	.
=59	=59	=59	=59	=59	=59	=59	=59	=59	=59	=59
2.g_	2.r	2.r	2.G_	4gg	2.ee-_	2.r	2.r	2.r	2.r	2.r
.	.	.	.	8gg	.	.	.	.	.	.
.	.	.	.	8ff#	.	.	.	.	.	.
.	.	.	.	8aa	.	.	.	.	.	.
.	.	.	.	8ff#	.	.	.	.	.	.
=60	=60	=60	=60	=60	=60	=60	=60	=60	=60	=60
2.g_	4e-	4F	2.G_	4gg	2.ee-_	2.r	2.r	2.r	4g	4B-
.	2r	2r	.	4gg	.	.	.	.	2r	2r
.	.	.	.	4gg	.	.	.	.	.	.
=61	=61	=61	=61	=61	=61	=61	=61	=61	=61	=61
2.g_	2.r	2.r	2.G_	4gg	2.ee-]	2.r	2.r	2.r	2.r	2.r
.	.	.	.	4gg	.	.	.	.	.	.
.	.	.	.	4gg	.	.	.	.	.	.
=62	=62	=62	=62	=62	=62	=62	=62	=62	=62	=62
2.g_	4e-	4F	2.G_	[2.gg	[2.ee-	4ccc	2.r	2.r	4g	4cc 4e-
.	2r	2r	.	.	.	8ccc	.	.	2r	2r
.	.	.	.	.	.	8bb	.	.	.	.
.	.	.	.	.	.	8ddd	.	.	.	.
.	.	.	.	.	.	8bb	.	.	.	.
=63	=63	=63	=63	=63	=63	=63	=63	=63	=63	=63
2.g_	2.r	2.r	2.G_	2.gg_	2.ee-_	4ccc	2.r	2.r	2.r	2.r
.	.	.	.	.	.	8ccc	.	.	.	.
.	.	.	.	.	.	8bb	.	.	.	.
.	.	.	.	.	.	8ddd	.	.	.	.
.	.	.	.	.	.	8bb	.	.	.	.
=64	=64	=64	=64	=64	=64	=64	=64	=64	=64	=64
2.g_	4e-	4F	2.G_	2.gg_	2.ee-_	4ccc	2.r	2.r	4g	4cc 4e-
.	2r	2r	.	.	.	4ccc	.	.	2r	2r
.	.	.	.	.	.	4ccc	.	.	.	.
=65	=65	=65	=65	=65	=65	=65	=65	=65	=65	=65
2.g_	2.r	2.r	2.G_	2.gg]	2.ee-]	4ccc	2.r	2.r	2.r	2.r
.	.	.	.	.	.	4ccc	.	.	.	.
.	.	.	.	.	.	4bb-	.	.	.	.
=66	=66	=66	=66	=66	=66	=66	=66	=66	=66	=66
2.g_	4F	4F	2.G_	[2.ff	[2.cc	2.aa	4e-	2.r	4ee-	4a 4cc
.	2r	2r	.	.	.	.	8e-	.	2r	2r
.	.	.	.	.	.	.	8d	.	.	.
.	.	.	.	.	.	.	8f	.	.	.
.	.	.	.	.	.	.	8d	.	.	.
=67	=67	=67	=67	=67	=67	=67	=67	=67	=67	=67
2.g]	2.r	2.r	2.G]	2.ff_	2.cc_	2.aa	4e-	2.r	2.r	2.r
.	.	.	.	.	.	.	8e-	.	.	.
.	.	.	.	.	.	.	8d	.	.	.
.	.	.	.	.	.	.	8f	.	.	.
.	.	.	.	.	.	.	8d	.	.	.
=68	=68	=68	=68	=68	=68	=68	=68	=68	=68	=68
4g	4F	4F	4G	4ff]	4cc]	4aa	4e-	2.r	4ee-	4a 4cc
4g	4F	4F	4G	4ff	4cc	4aa	4e-	.	4ee-	4a 4cc
4g	4F	4F	4G	4ff	4cc	4aa	4e-	.	4ee-	4a 4cc
=69	=69	=69	=69	=69	=69	=69	=69	=69	=69	=69
4g	4F	4F	4G	4ff	4cc	4aa	4e-	2.r	4ee-	4cc 4a
4g	4F	4F	4G	4ff	4cc	4aa	4e-	.	4ee-	4a 4cc
4g	4F	4F	4G	4ff	4cc	4aa	4e-	.	4ee-	4a 4cc
=70	=70	=70	=70	=70	=70	=70	=70	=70	=70	=70
4g	4F	4F	4G	4ff	4cc	4aa	4e-	4r	4ee-	4a 4cc
4r	4r	4r	4r	4r	4r	4r	4r	4r	4r	4r
4r	4r	4r	4r	4r	4r	4r	8d	4r	8dd	4r
.	.	.	.	.	.	.	8B-	.	8b-	.
=71	=71	=71	=71	=71	=71	=71	=71	=71	=71	=71
2.r	4d 4B-	4BB-	2.r	2.r	2.r	2.r	8F	2.r	8f	4r
.	.	.	.	.	.	.	8B-	.	8b-	.
.	2r	2r	.	.	.	.	8d	.	8dd	4d 4B-
.	.	.	.	.	.	.	8B-	.	8b-	.
.	.	.	.	.	.	.	8e-	.	8ee-	4e- 4c
.	.	.	.	.	.	.	8c	.	8cc	.
=72	=72	=72	=72	=72	=72	=72	=72	=72	=72	=72
2.r	4d 4B-	4BB-	2.r	2.r	2.r	2.r	4f	2.r	4ff	4r
.	2r	2r	.	.	.	.	4f	.	4ff	4f 4d
.	.	.	.	.	.	.	4f	.	4ff	4f 4d
=73	=73	=73	=73	=73	=73	=73	=73	=73	=73	=73
2.r	4e- 4c	4F	2.r	2.r	2.r	2.r	4e-	2.r	4ee-	4r
.	2r	2r	.	.	.	.	8e-	.	8ee-	4e- 4c
.	.	.	.	.	.	.	8d	.	8dd	.
.	.	.	.	.	.	.	8e-	.	8ee-	4c 4e-
.	.	.	.	.	.	.	8c	.	8cc	.
=74	=74	=74	=74	=74	=74	=74	=74	=74	=74	=74
2.r	4B- 4d	4BB-	2.r	2.r	2.r	2.r	4d	2.r	4dd	4r
.	2r	2r	.	.	.	.	4r	.	4r	4B- 4d
.	.	.	.	.	.	.	8d	.	8dd	4B- 4d
.	.	.	.	.	.	.	8B-	.	8b-	.
=75	=75	=75	=75	=75	=75	=75	=75	=75	=75	=75
2.r	4B- 4d	4BB-	2.r	2.r	2.r	2.r	8F	2.r	8f	4r
.	.	.	.	.	.	.	8B-	.	8b-	.
.	2r	2r	.	.	.	.	8d	.	8dd	4d 4B-
.	.	.	.	.	.	.	8B-	.	8b-	.
.	.	.	.	.	.	.	8e-	.	8ee-	4e- 4c
.	.	.	.	.	.	.	8c	.	8cc	.
=76	=76	=76	=76	=76	=76	=76	=76	=76	=76	=76
2.r	4B- 4d	4BB-	2.r	2.r	2.r	2.r	4f	2.r	4ff	4r
.	2r	2r	.	.	.	.	4f	.	4ff	4f 4d
.	.	.	.	.	.	.	4f	.	4ff	4f 4d
=77	=77	=77	=77	=77	=77	=77	=77	=77	=77	=77
2.r	4e- 4c	4F	2.r	2.r	2.r	2.r	4e-	2.r	4ee-	4r
.	2r	2r	.	.	.	.	8e-	.	8ee-	4e- 4c
.	.	.	.	.	.	.	8d	.	8dd	.
.	.	.	.	.	.	.	8e-	.	8ee-	4c 4e-
.	.	.	.	.	.	.	8c	.	8cc	.
=78	=78	=78	=78	=78	=78	=78	=78	=78	=78	=78
2.r	4d 4B-	4BB-	2.r	2.r	2.r	2.r	4B-	2.r	4b-	4B- 4d
.	2r	2r	.	.	.	.	2r	.	2r	2r
==	==	==	==	==	==	==	==	==	==	==
*-	*-	*-	*-	*-	*-	*-	*-	*-	*-	*-
!!!RWG1: This file contains only pitch and duration data.
!!!RWG2: Transposing instruments are not transposed.
!!!RWG3: Spines may have incompatible meters.
!!!RWG4: Durations of rests and tied notes may be interpreted.
!!!RWG: Key is interpreted using the Humdrum key tool.
!!!OPT: La Reine
!!!AFT: stage1
!!!END: 1997/04/15
!!format changes:
!!content changes:
!!public access: complete
!!!KEY: 1891262320
!!!EMD: Converted from MuseData to Humdrum Dec 16, 2000, by Andreas Kornstaedt using muse2kern.
